X: 082
M: C
L: 1/8
K: G
V: 1
d>d e/d/c/B/ c>AB>G EA (c/B/A/G/) FDDG | E<CE<A F<Dd>c | B<GD<F G2G |]
V: 2 clef=bass middle=d
z | g2G2 c2G2 | A2c2  d2D2 | g2c2  d2f2 | g2d2 G2G :|
z | g2b2 a2d2 | g3^c  d2D2 | g2b2  c2d2 | g2c2 d2G2 |
    g2b2 a2g2 | c2^c2 d2D2 | c2^c2 d2f2 | g2d2 G2G |]


